assets/icons/unordered-list/new.svg

<svg height="24" width="24" xmlns="http://www.w3.org/2000/svg"><path style="fill:gray;fill-opacity:1;stroke-width:.5;stroke-linecap:square" d="M10 6h10v1H10zm0 5h10v1H10zm0 5v1h4v-1h-4zm-5-6v3h3v-3H5zm1 1h1v1H6v-1zM5 5v3h3V5H6zm1 1h1v1H6zm-1 9v3h3v-3H6zm1 1h1v1H6z"/><path style="fill:gray;fill-opacity:1;stroke-linecap:round" d="M18 14v3h-3v1h3v3h1v-3h3v-1h-3v-3z"/></svg>

<?xml version="1.0" encoding="UTF-8" standalone="no"?>
<svg
   viewBox="0 0 24 24"
   height="24"
   id="svg7384"
   version="1.1"
   width="24"
   sodipodi:docname="new.svg"
   inkscape:version="1.2 (1:1.2.1+202207142221+cd75a1ee6d)"
   xmlns:inkscape="http://www.inkscape.org/namespaces/inkscape"
   xmlns:sodipodi="http://sodipodi.sourceforge.net/DTD/sodipodi-0.dtd"
   xmlns="http://www.w3.org/2000/svg"
   xmlns:svg="http://www.w3.org/2000/svg"
   xmlns:rdf="http://www.w3.org/1999/02/22-rdf-syntax-ns#"
   xmlns:cc="http://creativecommons.org/ns#"
   xmlns:dc="http://purl.org/dc/elements/1.1/">
  <sodipodi:namedview
     id="namedview21"
     pagecolor="#ffffff"
     bordercolor="#666666"
     borderopacity="1.0"
     inkscape:pageshadow="2"
     inkscape:pageopacity="0.0"
     inkscape:pagecheckerboard="0"
     showgrid="true"
     inkscape:snap-page="true"
     inkscape:zoom="28"
     inkscape:cx="12.535714"
     inkscape:cy="11.857143"
     inkscape:window-width="1920"
     inkscape:window-height="1043"
     inkscape:window-x="0"
     inkscape:window-y="0"
     inkscape:window-maximized="1"
     inkscape:current-layer="svg7384"
     inkscape:showpageshadow="2"
     inkscape:deskcolor="#d1d1d1">
    <inkscape:grid
       type="xygrid"
       id="grid2299" />
  </sodipodi:namedview>
  <metadata
     id="metadata20854">
    <rdf:RDF>
      <cc:Work
         rdf:about="">
        <dc:format>image/svg+xml</dc:format>
        <dc:type
           rdf:resource="http://purl.org/dc/dcmitype/StillImage" />
      </cc:Work>
    </rdf:RDF>
  </metadata>
  <defs
     id="defs7386">
    <linearGradient
       id="linearGradient5606"
       inkscape:swatch="solid">
      <stop
         id="stop5608"
         offset="0"
         style="stop-color:#000000;stop-opacity:1;" />
    </linearGradient>
    <linearGradient
       id="linearGradient4526"
       inkscape:swatch="solid">
      <stop
         id="stop4528"
         offset="0"
         style="stop-color:#ffffff;stop-opacity:1;" />
    </linearGradient>
    <linearGradient
       id="linearGradient3600-4"
       inkscape:swatch="gradient">
      <stop
         id="stop3602-7"
         offset="0"
         style="stop-color:#f4f4f4;stop-opacity:1" />
      <stop
         id="stop3604-6"
         offset="1"
         style="stop-color:#dbdbdb;stop-opacity:1" />
    </linearGradient>
  </defs>
  <g
     id="layer9"
     label="status"
     style="display:inline;fill:#808080;fill-opacity:1;stroke-width:0.8"
     transform="matrix(1.25,0,0,1.25,-438.00025,136.375)" />
  <g
     id="layer2"
     style="display:inline;fill:#808080;fill-opacity:1;stroke-width:0.8"
     transform="matrix(1.25,0,0,1.25,-136.75,-322.375)" />
  <g
     id="layer4"
     style="display:inline;fill:#808080;fill-opacity:1;stroke-width:0.8"
     transform="matrix(1.25,0,0,1.25,-136.75,-322.375)" />
  <g
     id="g1812"
     style="display:inline;fill:#808080;fill-opacity:1;stroke-width:0.8"
     transform="matrix(1.25,0,0,1.25,-136.75,-322.375)" />
  <g
     id="g6217"
     style="display:inline;fill:#808080;fill-opacity:1;stroke-width:0.8"
     transform="matrix(1.25,0,0,1.25,-136.75,-322.375)" />
  <g
     id="layer3"
     style="display:inline;fill:#808080;fill-opacity:1;stroke-width:0.8"
     transform="matrix(1.25,0,0,1.25,-136.75,-322.375)" />
  <g
     id="g1833"
     style="display:inline;fill:#808080;fill-opacity:1;stroke-width:0.8"
     transform="matrix(1.25,0,0,1.25,-136.75,-322.375)" />
  <g
     id="layer1"
     style="display:inline;fill:#808080;fill-opacity:1;stroke-width:0.8"
     transform="matrix(1.25,0,0,1.25,-136.75,-322.375)" />
  <rect
     style="fill:#808080;fill-opacity:1;fill-rule:evenodd;stroke-width:0.5;stroke-linecap:square"
     id="rect2020"
     width="10"
     height="1"
     x="10"
     y="6" />
  <rect
     style="fill:#808080;fill-opacity:1;fill-rule:evenodd;stroke-width:0.5;stroke-linecap:square"
     id="rect2022"
     width="10"
     height="1"
     x="10"
     y="11" />
  <path
     id="rect2046"
     style="fill:#808080;fill-opacity:1;fill-rule:evenodd;stroke-width:0.5;stroke-linecap:square"
     d="M 10 16 L 10 17 L 14 17 L 14 16 L 10 16 z " />
  <path
     id="rect2050"
     style="fill:#808080;fill-opacity:1;fill-rule:evenodd;stroke-width:0.5;stroke-linecap:square"
     d="M 5 10 L 5 13 L 6 13 L 7 13 L 8 13 L 8 10 L 7 10 L 6 10 L 5 10 z M 6 11 L 7 11 L 7 12 L 6 12 L 6 11 z " />
  <path
     id="path2792"
     style="fill:#808080;fill-opacity:1;fill-rule:evenodd;stroke-width:0.5;stroke-linecap:square"
     d="m 5,5 v 3 h 1 1 1 v -3 h -1 -1 z m 1,1 h 1 v 1 h -1 z" />
  <path
     id="path2794"
     style="fill:#808080;fill-opacity:1;fill-rule:evenodd;stroke-width:0.5;stroke-linecap:square"
     d="m 5,15 v 3 h 1 1 1 v -3 h -1 -1 z m 1,1 h 1 v 1 h -1 z" />
  <path
     id="rect961"
     style="fill:#808080;fill-opacity:1;fill-rule:evenodd;stroke-linecap:round"
     d="m 18,14 v 3 h -3 v 1 h 3 v 3 h 1 v -3 h 3 v -1 h -3 v -3 z" />
</svg>
